X: 29381
T: Newtown Bridge
R: jig
M: 6/8
K: Dmajor
|:A2G FDD|ded cAF|GFG ABG|FED EFG|
A2G FDD|ded cAG|Ade ffa|1 gec dcB:|2 gec d2A||
|:~d3 AFA|de/f/g afd|eAB =c2d|=cAG EFG|
[1 A2G FDD|ded cAG|Ade ffa|gec dA/B/c:|
[2 afa g2e|fdf edc|Ade ffa|gec dcB||

